packages/symbols/svgs/solid/nps-solid.svg

<svg width="16" height="16" viewBox="0 0 16 16" fill="none" xmlns="http://www.w3.org/2000/svg">
<g clip-path="url(#clip0_587_2708)">
<path d="M1.11232 11.8534V6.70613H1.16031L3.7819 11.8534H4.759V4.15786H3.64231V9.27696H3.59433L0.985823 4.15786H0V11.8534H1.11232Z" fill="black"/>
<path d="M8.63686 4.15786H6.25518V11.8534H7.43293V9.27132H8.62814C9.91494 9.27132 10.6478 8.17195 10.6478 6.72304C10.6478 5.28541 9.92366 4.15786 8.63686 4.15786ZM9.4482 6.72304C9.4482 7.57999 9.05998 8.07611 8.41003 8.07611H7.42857V5.36998H8.41003C9.05998 5.36998 9.4482 5.86047 9.4482 6.72304Z" fill="black"/>
<path d="M11.3413 9.75617C11.3937 10.9739 12.1265 12 13.6401 12C15.1494 12 16 11.019 16 9.58703C16 8.29598 15.3631 7.69838 14.3991 7.41649L13.4744 7.14024C12.9509 6.99366 12.6587 6.68922 12.6587 6.22692C12.6587 5.62932 13.0469 5.19521 13.6968 5.19521C14.3293 5.19521 14.7176 5.61804 14.7917 6.17054H15.9084C15.8517 4.98661 15.0665 4 13.7056 4C12.3926 4 11.4809 4.91896 11.4809 6.3284C11.4809 7.49542 12.0654 8.18323 12.9902 8.45384L13.9106 8.73009C14.53 8.91614 14.8266 9.19239 14.8266 9.72798C14.8266 10.3594 14.4384 10.7935 13.7056 10.7935C13.0033 10.7935 12.5583 10.3538 12.4798 9.75617H11.3413Z" fill="black"/>
</g>
<defs>
<clipPath id="clip0_587_2708">
<rect width="16" height="16" fill="white"/>
</clipPath>
</defs>
</svg>

<svg width="16" height="16" viewBox="0 0 16 16" xmlns="http://www.w3.org/2000/svg"><g clip-path="url(#a)"><path d="M1.112 11.853V6.706h.048l2.622 5.147h.977V4.158H3.642v5.119h-.048L.986 4.157H0v7.696h1.112Zm7.525-7.695H6.255v7.695h1.178V9.271h1.195c1.287 0 2.02-1.099 2.02-2.548 0-1.438-.724-2.565-2.011-2.565Zm.811 2.565c0 .857-.388 1.353-1.038 1.353h-.981V5.37h.981c.65 0 1.038.49 1.038 1.353Zm1.893 3.033c.053 1.218.786 2.244 2.3 2.244C15.148 12 16 11.019 16 9.587c0-1.291-.637-1.889-1.6-2.17l-.926-.277c-.523-.146-.815-.45-.815-.913 0-.598.388-1.032 1.038-1.032.632 0 1.02.423 1.095.976h1.116C15.852 4.987 15.067 4 13.706 4c-1.313 0-2.225.919-2.225 2.328 0 1.167.584 1.855 1.51 2.126l.92.276c.619.186.916.462.916.998 0 .631-.389 1.066-1.121 1.066-.703 0-1.148-.44-1.226-1.038h-1.14Z"/></g><defs><clipPath id="a"><path fill="#fff" d="M0 0h16v16H0z"/></clipPath></defs></svg>
